symbolic/22x22/apps/vprerex.svg

<svg xmlns="http://www.w3.org/2000/svg" width="22" height="22" version="1">
 <rect style="opacity:0.2" width="14" height="20" x="-18.5" y="-21" rx="1.167" ry="1.25" transform="matrix(0,-1,-1,0,0,0)"/>
 <rect style="fill:#ffb943" width="14" height="20" x="-18" y="-21" rx="1.167" ry="1.25" transform="matrix(0,-1,-1,0,0,0)"/>
 <path style="opacity:0.2;fill:#ffffff" d="m 2.25,4.0000005 c -0.6925,0 -1.25,0.520659 -1.25,1.166992 v 0.5 c 0,-0.646333 0.5575,-1.166992 1.25,-1.166992 h 17.5 c 0.6925,0 1.25,0.520659 1.25,1.166992 v -0.5 c 0,-0.646333 -0.5575,-1.166992 -1.25,-1.166992 z"/>
 <path style="fill:none;stroke:#3f3f3f;stroke-width:2;stroke-linecap:round;stroke-linejoin:round" d="m 5.0073763,2.0000005 3,5"/>
 <path style="opacity:0.1" d="m 5.3271783,7.204586 a 0.63848625,0.6298773 0 0 0 -6.5e-4,1.0912365 l 1.861459,1.059966 1.8614597,1.0599675 A 0.63848625,0.6298773 0 0 0 10.006925,9.8704095 L 10.00715,7.75009 10.007376,5.629772 A 0.63848625,0.6298773 0 0 0 9.0491,5.084703 L 7.1881358,6.1446445 Z"/>
 <path style="opacity:0.1;fill:#ffffff" d="M 5.0444858,0.98828171 A 1.0001,1.0001 0 0 0 4.0327668,2.2392583 1.0001,1.0001 0 0 1 5.0444858,1.4882818 1.0001,1.0001 0 0 1 5.8647983,1.985352 l 3,5 A 1.0001,1.0001 0 0 1 8.9810093,7.2617195 1.0001,1.0001 0 0 0 8.8647983,6.485352 l -3,-5 A 1.0001,1.0001 0 0 0 5.0444858,0.98828171 Z"/>
 <path style="fill:#4f4f4f" d="m 5.3271783,6.704586 a 0.63848625,0.6298773 0 0 0 -6.5e-4,1.0912365 l 1.861459,1.059966 1.8614597,1.059967 a 0.63848625,0.6298773 0 0 0 0.957478,-0.545346 L 10.00715,7.25009 10.007376,5.129772 A 0.63848625,0.6298773 0 0 0 9.0491,4.584703 L 7.1881358,5.6446445 Z"/>
 <path style="fill:none;stroke:#3f3f3f;stroke-width:2;stroke-linecap:round;stroke-linejoin:round" d="m 12,13.000001 3,5"/>
 <path style="opacity:0.1" d="m 12.319802,18.204586 a 0.63848625,0.6298773 0 0 0 -6.5e-4,1.091237 l 1.861459,1.059966 1.86146,1.059967 a 0.63848625,0.6298773 0 0 0 0.957478,-0.545347 L 16.999774,18.750091 17,16.629772 a 0.63848625,0.6298773 0 0 0 -0.958277,-0.545069 l -1.860963,1.059942 z"/>
 <path style="fill:#4f4f4f" d="m 12.319802,17.704586 a 0.63848625,0.6298773 0 0 0 -6.5e-4,1.091237 l 1.861459,1.059966 1.86146,1.059967 a 0.63848625,0.6298773 0 0 0 0.957478,-0.545347 L 16.999774,18.250091 17,16.129772 a 0.63848625,0.6298773 0 0 0 -0.958277,-0.545069 l -1.860963,1.059942 z"/>
</svg>

<svg xmlns="http://www.w3.org/2000/svg" width="22" height="22" version="1"><rect style="opacity:.2" width="14" height="20" x="-18.5" y="-21" rx="1.167" ry="1.25" transform="matrix(0 -1 -1 0 0 0)"/><rect style="fill:#ffb943" width="14" height="20" x="-18" y="-21" rx="1.167" ry="1.25" transform="matrix(0 -1 -1 0 0 0)"/><path style="opacity:.2;fill:#fff" d="M2.25 4C1.557 4 1 4.52 1 5.167v.5C1 5.021 1.557 4.5 2.25 4.5h17.5c.693 0 1.25.52 1.25 1.167v-.5C21 4.521 20.443 4 19.75 4z"/><path style="fill:none;stroke:#3f3f3f;stroke-width:2;stroke-linecap:round;stroke-linejoin:round" d="m5.007 2 3 5"/><path style="opacity:.1" d="M5.327 7.205a.638.63 0 0 0 0 1.09l1.861 1.06 1.861 1.06a.638.63 0 0 0 .958-.545V5.63a.638.63 0 0 0-.958-.545l-1.86 1.06z"/><path style="opacity:.1;fill:#fff" d="M5.044.988A1 1 0 0 0 4.033 2.24a1 1 0 0 1 1.011-.75 1 1 0 0 1 .82.496l3 5a1 1 0 0 1 .117.277 1 1 0 0 0-.116-.777l-3-5a1 1 0 0 0-.82-.497z"/><path style="fill:#4f4f4f" d="M5.327 6.705a.638.63 0 0 0 0 1.09l1.861 1.06 1.861 1.06a.638.63 0 0 0 .958-.545V5.13a.638.63 0 0 0-.958-.545l-1.86 1.06z"/><path style="fill:none;stroke:#3f3f3f;stroke-width:2;stroke-linecap:round;stroke-linejoin:round" d="m12 13 3 5"/><path style="opacity:.1" d="M12.32 18.205a.638.63 0 0 0 0 1.09l1.86 1.06 1.862 1.06A.638.63 0 0 0 17 20.87v-4.24a.638.63 0 0 0-.958-.545l-1.861 1.06z"/><path style="fill:#4f4f4f" d="M12.32 17.705a.638.63 0 0 0 0 1.09l1.86 1.06 1.862 1.06A.638.63 0 0 0 17 20.37v-4.24a.638.63 0 0 0-.958-.545l-1.861 1.06z"/></svg>
